X:2879
T:Låtn överom quintn
R:Polkett
O:Västerbotten
M:4/4
L:1/8
K:Am
|: e'2 e>d cB A>a | ^gb e^f/^g/ ae' e2 | e'2 e>d cB A>a | ^gb e^f/^g/ aa az :|
K:D
|: ga/g/ fd fg/f/ ed | c/d/c/B/ AB/c/ df a2 | ga/g/ fd fg/f/ ed | c/d/c/B/ AB/c/ dd dz :|
K:A
|: A>c ea gf e2 | EG/B/ EG/B/ BA c/B/Az | A>c ea gf e2 | eg/b/ eg/b/ ba az :|
(:musicend:)

%green% Tre takter från slutet är takten 9 åttondelar lång. Är det ett misstag eller ska det vara så? /Nils
%green% Nej, det är ett skrivfel. /Hasse
(:music:)
